icons/visualstudio-dark.svg

<svg width="256" height="256" viewBox="0 0 256 256" fill="none" xmlns="http://www.w3.org/2000/svg">
<rect width="256" height="256" rx="60" fill="#282828"/>
<mask id="mask0_217_156" style="mask-type:alpha" maskUnits="userSpaceOnUse" x="28" y="28" width="200" height="200">
<path d="M64.6656 197.166L31.3344 172.166C30.2952 171.394 29.4519 170.389 28.8727 169.23C28.2935 168.072 27.9946 166.795 28.0001 165.5V90.5001C27.9946 89.2054 28.2935 87.9276 28.8727 86.7698C29.4519 85.6119 30.2952 84.6065 31.3344 83.8345L64.6656 58.8345C63.7702 59.6752 63.0936 60.7218 62.6944 61.8835C62.2952 63.0451 62.1856 64.2866 62.375 65.5001V190.5C62.1856 191.714 62.2952 192.955 62.6944 194.117C63.0936 195.278 63.7702 196.325 64.6656 197.166Z" fill="white"/>
<path d="M224.29 62.7093C222.917 61.8073 221.308 61.3291 219.665 61.3344C218.601 61.3258 217.544 61.5273 216.558 61.9274C215.571 62.3274 214.673 62.9181 213.915 63.6656L213.334 64.25L146.834 128L110.04 163.291L75.9999 195.915L75.4156 196.5C74.6583 197.248 73.7604 197.84 72.7736 198.241C71.7868 198.641 70.7305 198.843 69.6656 198.834C67.8628 198.83 66.1092 198.246 64.6656 197.165L31.3344 172.166C33.0279 173.437 35.1424 174.016 37.2476 173.784C39.3528 173.552 41.2902 172.526 42.6656 170.915L79.6656 127.959L110.04 92.7093L163.25 30.9156C164.022 30.0005 164.985 29.2654 166.072 28.7617C167.159 28.2581 168.343 27.9981 169.541 28C171.184 27.9947 172.792 28.4729 174.165 29.375L224.29 62.7093Z" fill="white"/>
<path d="M224.29 193.29L174.291 226.624C172.589 227.735 170.545 228.195 168.532 227.92C166.52 227.644 164.674 226.651 163.334 225.125L110.04 163.291L79.6656 127.959L42.6656 85.0405C41.278 83.4462 39.3387 82.4358 37.2369 82.2121C35.1352 81.9883 33.0266 82.5679 31.3344 83.8344L64.6656 58.8344C66.1092 57.7545 67.8628 57.1692 69.6656 57.1656C70.7305 57.1566 71.7868 57.3582 72.7736 57.7588C73.7604 58.1595 74.6583 58.7512 75.4156 59.5L75.9999 60.0843L110.04 92.7094L146.834 128L213.334 191.75L213.915 192.334C214.673 193.082 215.571 193.672 216.558 194.072C217.544 194.472 218.601 194.674 219.665 194.665C221.308 194.671 222.917 194.193 224.29 193.29Z" fill="white"/>
<path d="M228 69.6655V186.334C228.001 187.709 227.663 189.064 227.016 190.276C226.369 191.49 225.433 192.525 224.29 193.29L174.291 226.624C175.433 225.859 176.369 224.823 177.017 223.609C177.663 222.395 178 221.041 177.999 219.665V36.3343C177.981 34.9486 177.622 33.5889 176.953 32.3751C176.284 31.1613 175.327 30.1309 174.165 29.375L224.29 62.7093C225.429 63.4774 226.364 64.5131 227.011 65.7258C227.658 66.9385 227.997 68.2911 228 69.6655Z" fill="white"/>
</mask>
<g mask="url(#mask0_217_156)">
<path d="M64.6656 197.165L31.3344 172.166C30.2952 171.394 29.4519 170.387 28.8727 169.23C28.2935 168.072 27.9946 166.794 28.0001 165.5V90.4999C27.9946 89.2052 28.2935 87.9273 28.8727 86.7696C29.4519 85.6117 30.2952 84.6062 31.3344 83.8342L64.6656 58.8342C63.7702 59.675 63.0936 60.7216 62.6944 61.8832C62.2952 63.0449 62.1856 64.2863 62.375 65.4999V190.5C62.1856 191.714 62.2952 192.955 62.6944 194.117C63.0936 195.278 63.7702 196.324 64.6656 197.165Z" fill="#5E438F"/>
<g filter="url(#filter0_dd_217_156)">
<path d="M224.289 62.7093C222.917 61.8073 221.308 61.3291 219.665 61.3344C218.601 61.3258 217.544 61.5273 216.557 61.9274C215.571 62.3274 214.673 62.9181 213.915 63.6656L213.334 64.25L177.914 98.2093L146.834 128L110.04 163.291L75.9993 195.915L75.4151 196.5C74.6577 197.248 73.7598 197.84 72.7731 198.241C71.7862 198.641 70.73 198.843 69.665 198.834C67.8622 198.83 66.1087 198.246 64.665 197.165L31.3338 172.166C33.0272 173.437 35.1418 174.016 37.247 173.784C39.3522 173.552 41.2897 172.526 42.6651 170.915L61.3338 149.25L79.665 127.959L110.04 92.7093L163.249 30.9156C164.022 30.0005 164.985 29.2654 166.072 28.7617C167.158 28.2581 168.343 27.9981 169.539 28C171.183 27.9947 172.791 28.4729 174.165 29.375L224.289 62.7093Z" fill="url(#paint0_linear_217_156)"/>
</g>
<g filter="url(#filter1_dd_217_156)">
<path d="M224.289 193.29L174.29 226.625C172.589 227.736 170.545 228.195 168.532 227.92C166.519 227.644 164.674 226.652 163.334 225.125L110.04 163.291L79.665 127.959L61.3338 106.709L42.6651 85.0407C41.2774 83.4464 39.338 82.436 37.2363 82.2122C35.1347 81.9884 33.026 82.5681 31.3338 83.8344L64.665 58.8345C66.1087 57.7546 67.8622 57.1693 69.665 57.1658C70.73 57.1568 71.7862 57.3584 72.7731 57.759C73.7598 58.1596 74.6577 58.7514 75.4151 59.5002L75.9993 60.0845L110.04 92.7094L146.834 128L177.958 157.835L213.334 191.75L213.915 192.335C214.673 193.082 215.571 193.672 216.557 194.072C217.544 194.472 218.601 194.674 219.665 194.665C221.308 194.671 222.917 194.192 224.289 193.29Z" fill="url(#paint1_linear_217_156)"/>
</g>
<g filter="url(#filter2_dd_217_156)">
<path d="M228 69.6653V186.333C228.001 187.709 227.663 189.063 227.016 190.277C226.369 191.489 225.433 192.525 224.29 193.29L174.29 226.624C175.433 225.859 176.369 224.823 177.015 223.609C177.663 222.395 178 221.041 177.999 219.665V36.3341C177.981 34.9485 177.622 33.5886 176.953 32.3748C176.284 31.161 175.327 30.1307 174.165 29.3748L224.29 62.709C225.429 63.4771 226.363 64.5129 227.011 65.7256C227.657 66.9383 227.997 68.291 228 69.6653Z" fill="url(#paint2_linear_217_156)"/>
</g>
</g>
<defs>
<filter id="filter0_dd_217_156" x="26.1529" y="24.1143" width="203.317" height="181.196" filterUnits="userSpaceOnUse" color-interpolation-filters="sRGB">
<feFlood flood-opacity="0" result="BackgroundImageFix"/>
<feColorMatrix in="SourceAlpha" type="matrix" values="0 0 0 0 0 0 0 0 0 0 0 0 0 0 0 0 0 0 127 0" result="hardAlpha"/>
<feOffset dy="0.246095"/>
<feGaussianBlur stdDeviation="0.246095"/>
<feColorMatrix type="matrix" values="0 0 0 0 0 0 0 0 0 0 0 0 0 0 0 0 0 0 0.24 0"/>
<feBlend mode="normal" in2="BackgroundImageFix" result="effect1_dropShadow_217_156"/>
<feColorMatrix in="SourceAlpha" type="matrix" values="0 0 0 0 0 0 0 0 0 0 0 0 0 0 0 0 0 0 127 0" result="hardAlpha"/>
<feOffset dy="1.29524"/>
<feGaussianBlur stdDeviation="2.59048"/>
<feColorMatrix type="matrix" values="0 0 0 0 0 0 0 0 0 0 0 0 0 0 0 0 0 0 0.22 0"/>
<feBlend mode="normal" in2="effect1_dropShadow_217_156" result="effect2_dropShadow_217_156"/>
<feBlend mode="normal" in="SourceGraphic" in2="effect2_dropShadow_217_156" result="shape"/>
</filter>
<filter id="filter1_dd_217_156" x="26.1529" y="53.2798" width="203.317" height="181.194" filterUnits="userSpaceOnUse" color-interpolation-filters="sRGB">
<feFlood flood-opacity="0" result="BackgroundImageFix"/>
<feColorMatrix in="SourceAlpha" type="matrix" values="0 0 0 0 0 0 0 0 0 0 0 0 0 0 0 0 0 0 127 0" result="hardAlpha"/>
<feOffset dy="0.246095"/>
<feGaussianBlur stdDeviation="0.246095"/>
<feColorMatrix type="matrix" values="0 0 0 0 0 0 0 0 0 0 0 0 0 0 0 0 0 0 0.24 0"/>
<feBlend mode="normal" in2="BackgroundImageFix" result="effect1_dropShadow_217_156"/>
<feColorMatrix in="SourceAlpha" type="matrix" values="0 0 0 0 0 0 0 0 0 0 0 0 0 0 0 0 0 0 127 0" result="hardAlpha"/>
<feOffset dy="1.29524"/>
<feGaussianBlur stdDeviation="2.59048"/>
<feColorMatrix type="matrix" values="0 0 0 0 0 0 0 0 0 0 0 0 0 0 0 0 0 0 0.22 0"/>
<feBlend mode="normal" in2="effect1_dropShadow_217_156" result="effect2_dropShadow_217_156"/>
<feBlend mode="normal" in="SourceGraphic" in2="effect2_dropShadow_217_156" result="shape"/>
</filter>
<filter id="filter2_dd_217_156" x="158.622" y="13.8319" width="84.9208" height="228.335" filterUnits="userSpaceOnUse" color-interpolation-filters="sRGB">
<feFlood flood-opacity="0" result="BackgroundImageFix"/>
<feColorMatrix in="SourceAlpha" type="matrix" values="0 0 0 0 0 0 0 0 0 0 0 0 0 0 0 0 0 0 127 0" result="hardAlpha"/>
<feOffset/>
<feGaussianBlur stdDeviation="0.129524"/>
<feColorMatrix type="matrix" values="0 0 0 0 0 0 0 0 0 0 0 0 0 0 0 0 0 0 0.24 0"/>
<feBlend mode="normal" in2="BackgroundImageFix" result="effect1_dropShadow_217_156"/>
<feColorMatrix in="SourceAlpha" type="matrix" values="0 0 0 0 0 0 0 0 0 0 0 0 0 0 0 0 0 0 127 0" result="hardAlpha"/>
<feOffset/>
<feGaussianBlur stdDeviation="7.77143"/>
<feColorMatrix type="matrix" values="0 0 0 0 0 0 0 0 0 0 0 0 0 0 0 0 0 0 0.3 0"/>
<feBlend mode="normal" in2="effect1_dropShadow_217_156" result="effect2_dropShadow_217_156"/>
<feBlend mode="normal" in="SourceGraphic" in2="effect2_dropShadow_217_156" result="shape"/>
</filter>
<linearGradient id="paint0_linear_217_156" x1="190.499" y1="28" x2="41.9893" y2="177.471" gradientUnits="userSpaceOnUse">
<stop stop-color="#7252AA"/>
<stop offset="1" stop-color="#7252AA"/>
</linearGradient>
<linearGradient id="paint1_linear_217_156" x1="46.7501" y1="64.4571" x2="186.332" y2="220.705" gradientUnits="userSpaceOnUse">
<stop stop-color="#AE7FE2"/>
<stop offset="1" stop-color="#9A70D4"/>
</linearGradient>
<linearGradient id="paint2_linear_217_156" x1="200.49" y1="25.3528" x2="200.49" y2="226.456" gradientUnits="userSpaceOnUse">
<stop stop-color="#D59DFF"/>
<stop offset="1" stop-color="#C18EF1"/>
</linearGradient>
</defs>
</svg>

<svg xmlns="http://www.w3.org/2000/svg" width="256" height="256" fill="none"><rect width="256" height="256" fill="#282828" rx="60"/><mask id="mask0_217_156" width="200" height="200" x="28" y="28" maskUnits="userSpaceOnUse" style="mask-type:alpha"><path fill="#fff" d="m64.666 197.166-33.332-25A8.25 8.25 0 0 1 28 165.5v-75a8.26 8.26 0 0 1 3.334-6.665l33.332-25a7.55 7.55 0 0 0-2.291 6.665v125a7.55 7.55 0 0 0 2.29 6.666"/><path fill="#fff" d="M224.29 62.71a8.4 8.4 0 0 0-4.625-1.376 8.1 8.1 0 0 0-5.75 2.332l-.581.584-66.5 63.75-36.794 35.291L76 195.915l-.584.585a8.1 8.1 0 0 1-5.75 2.334 8.37 8.37 0 0 1-5-1.669l-33.332-24.999a8.323 8.323 0 0 0 11.331-1.251l37-42.956 30.375-35.25 53.21-61.793A8.2 8.2 0 0 1 169.541 28a8.37 8.37 0 0 1 4.624 1.375z"/><path fill="#fff" d="m224.29 193.29-49.999 33.334a8.44 8.44 0 0 1-5.759 1.296 8.45 8.45 0 0 1-5.198-2.795l-53.294-61.834-30.374-35.332-37-42.919a8.37 8.37 0 0 0-11.332-1.206l33.332-25a8.38 8.38 0 0 1 5-1.668 8.08 8.08 0 0 1 5.75 2.334l.584.584 34.04 32.625L146.834 128l66.5 63.75.581.584a8.1 8.1 0 0 0 5.75 2.331 8.36 8.36 0 0 0 4.625-1.375"/><path fill="#fff" d="M228 69.666v116.668a8.36 8.36 0 0 1-3.71 6.956l-49.999 33.334a8.4 8.4 0 0 0 2.726-3.015 8.4 8.4 0 0 0 .982-3.944V36.335a8.43 8.43 0 0 0-3.834-6.96l50.125 33.334a8.4 8.4 0 0 1 3.71 6.956"/></mask><g mask="url(#mask0_217_156)"><path fill="#5E438F" d="m64.666 197.165-33.332-24.999A8.27 8.27 0 0 1 28 165.5v-75a8.26 8.26 0 0 1 3.334-6.666l33.332-25a7.55 7.55 0 0 0-2.291 6.666v125a7.55 7.55 0 0 0 2.29 6.665"/><g filter="url(#filter0_dd_217_156)"><path fill="url(#paint0_linear_217_156)" d="M224.289 62.71a8.37 8.37 0 0 0-4.624-1.376 8.1 8.1 0 0 0-5.75 2.332l-.581.584-35.42 33.96-31.08 29.79-36.794 35.291L76 195.915l-.585.585a8.1 8.1 0 0 1-5.75 2.334 8.37 8.37 0 0 1-5-1.669l-33.331-24.999a8.323 8.323 0 0 0 11.331-1.251l18.669-21.665 18.331-21.291 30.375-35.25 53.209-61.793a8.22 8.22 0 0 1 6.29-2.916 8.4 8.4 0 0 1 4.626 1.375z"/></g><g filter="url(#filter1_dd_217_156)"><path fill="url(#paint1_linear_217_156)" d="m224.289 193.29-49.999 33.335a8.44 8.44 0 0 1-10.956-1.5l-53.294-61.834-30.375-35.332-18.331-21.25-18.669-21.668a8.373 8.373 0 0 0-11.331-1.207l33.331-25a8.38 8.38 0 0 1 5-1.668 8.08 8.08 0 0 1 5.75 2.334l.584.584L110.04 92.71 146.834 128l31.124 29.835 35.376 33.915.581.585a8.1 8.1 0 0 0 5.75 2.33 8.36 8.36 0 0 0 4.624-1.375"/></g><g filter="url(#filter2_dd_217_156)"><path fill="url(#paint2_linear_217_156)" d="M228 69.665v116.668a8.37 8.37 0 0 1-3.71 6.957l-50 33.334a8.35 8.35 0 0 0 2.725-3.015 8.36 8.36 0 0 0 .984-3.944V36.335a8.43 8.43 0 0 0-3.834-6.96l50.125 33.334a8.4 8.4 0 0 1 2.721 3.017 8.4 8.4 0 0 1 .989 3.94"/></g></g><defs><linearGradient id="paint0_linear_217_156" x1="190.499" x2="41.989" y1="28" y2="177.471" gradientUnits="userSpaceOnUse"><stop stop-color="#7252AA"/><stop offset="1" stop-color="#7252AA"/></linearGradient><linearGradient id="paint1_linear_217_156" x1="46.75" x2="186.332" y1="64.457" y2="220.705" gradientUnits="userSpaceOnUse"><stop stop-color="#AE7FE2"/><stop offset="1" stop-color="#9A70D4"/></linearGradient><linearGradient id="paint2_linear_217_156" x1="200.49" x2="200.49" y1="25.353" y2="226.456" gradientUnits="userSpaceOnUse"><stop stop-color="#D59DFF"/><stop offset="1" stop-color="#C18EF1"/></linearGradient><filter id="filter0_dd_217_156" width="203.317" height="181.196" x="26.153" y="24.114" color-interpolation-filters="sRGB" filterUnits="userSpaceOnUse"><feFlood flood-opacity="0" result="BackgroundImageFix"/><feColorMatrix in="SourceAlpha" result="hardAlpha" values="0 0 0 0 0 0 0 0 0 0 0 0 0 0 0 0 0 0 127 0"/><feOffset dy=".246"/><feGaussianBlur stdDeviation=".246"/><feColorMatrix values="0 0 0 0 0 0 0 0 0 0 0 0 0 0 0 0 0 0 0.24 0"/><feBlend in2="BackgroundImageFix" result="effect1_dropShadow_217_156"/><feColorMatrix in="SourceAlpha" result="hardAlpha" values="0 0 0 0 0 0 0 0 0 0 0 0 0 0 0 0 0 0 127 0"/><feOffset dy="1.295"/><feGaussianBlur stdDeviation="2.59"/><feColorMatrix values="0 0 0 0 0 0 0 0 0 0 0 0 0 0 0 0 0 0 0.22 0"/><feBlend in2="effect1_dropShadow_217_156" result="effect2_dropShadow_217_156"/><feBlend in="SourceGraphic" in2="effect2_dropShadow_217_156" result="shape"/></filter><filter id="filter1_dd_217_156" width="203.317" height="181.194" x="26.153" y="53.28" color-interpolation-filters="sRGB" filterUnits="userSpaceOnUse"><feFlood flood-opacity="0" result="BackgroundImageFix"/><feColorMatrix in="SourceAlpha" result="hardAlpha" values="0 0 0 0 0 0 0 0 0 0 0 0 0 0 0 0 0 0 127 0"/><feOffset dy=".246"/><feGaussianBlur stdDeviation=".246"/><feColorMatrix values="0 0 0 0 0 0 0 0 0 0 0 0 0 0 0 0 0 0 0.24 0"/><feBlend in2="BackgroundImageFix" result="effect1_dropShadow_217_156"/><feColorMatrix in="SourceAlpha" result="hardAlpha" values="0 0 0 0 0 0 0 0 0 0 0 0 0 0 0 0 0 0 127 0"/><feOffset dy="1.295"/><feGaussianBlur stdDeviation="2.59"/><feColorMatrix values="0 0 0 0 0 0 0 0 0 0 0 0 0 0 0 0 0 0 0.22 0"/><feBlend in2="effect1_dropShadow_217_156" result="effect2_dropShadow_217_156"/><feBlend in="SourceGraphic" in2="effect2_dropShadow_217_156" result="shape"/></filter><filter id="filter2_dd_217_156" width="84.921" height="228.335" x="158.622" y="13.832" color-interpolation-filters="sRGB" filterUnits="userSpaceOnUse"><feFlood flood-opacity="0" result="BackgroundImageFix"/><feColorMatrix in="SourceAlpha" result="hardAlpha" values="0 0 0 0 0 0 0 0 0 0 0 0 0 0 0 0 0 0 127 0"/><feOffset/><feGaussianBlur stdDeviation=".13"/><feColorMatrix values="0 0 0 0 0 0 0 0 0 0 0 0 0 0 0 0 0 0 0.24 0"/><feBlend in2="BackgroundImageFix" result="effect1_dropShadow_217_156"/><feColorMatrix in="SourceAlpha" result="hardAlpha" values="0 0 0 0 0 0 0 0 0 0 0 0 0 0 0 0 0 0 127 0"/><feOffset/><feGaussianBlur stdDeviation="7.771"/><feColorMatrix values="0 0 0 0 0 0 0 0 0 0 0 0 0 0 0 0 0 0 0.3 0"/><feBlend in2="effect1_dropShadow_217_156" result="effect2_dropShadow_217_156"/><feBlend in="SourceGraphic" in2="effect2_dropShadow_217_156" result="shape"/></filter></defs></svg>
